X: 11289
T: E-B-E, The
R: reel
M: 4/4
K: Bdorian
|:B2fB AEcA|FABc BAFA|B2fB AAcA|cFBF AFEA|
B2fB AecA|FABc BAce|fAeA cFBF|1 AFEA FBBA:|2 AFEA FBB2||
|:bfab f~B3|B^dfB a2ga|bfab fBB2|cFBF AFEa|bfab fBBA|
B^dfB a2ga|1 bfae fceB|cFBF A2ce:|2 fgab fgab|fgab efga||

